X: 5967
T: Campbells Are Coming, The
R: slip jig
M: 9/8
K: Gmajor
|:GAB GAB E2D|GAB d3 dBA|GAB GAB e2d|B2e edB dBA:|
|:B2e e2f g3|B2e edB dBA|B2e e2f g3|agf gfe dBA:|

